X: 26039
T: Mazurka Magic
R: mazurka
M: 3/4
K: Dmajor
FG|A2.d3A|B3AGF|EF .G2 .A2|F2 D2 FG|
A2.d3A|B3AGF|1 EF GA Bc|d4:|2 G^G A^A Bc|d4||
cd|^de cA ce|=df dA df|eg e^d e=f|^f2 g2 a2|
^de cA ce|=df dA df|ge ce ^de|=d4:|

